img/flying/img-2.svg

<svg width="173" height="175" viewBox="0 0 173 175" fill="none" xmlns="http://www.w3.org/2000/svg">
<g filter="url(#filter0_d_5_212)">
<path d="M77.4179 75.2521L65.904 73.5629C64.5752 73.3644 63.22 73.8414 62.2946 74.8342L54.3796 83.3602C52.056 85.8589 47.8828 84.6125 47.3082 81.2529L45.3677 69.7783C45.1374 68.4444 44.2681 67.3082 43.0341 66.7401L32.4824 61.8418C29.3879 60.4086 29.2866 56.0508 32.3072 54.4686L42.6161 49.0671C43.8143 48.4381 44.6168 47.2624 44.7807 45.9195L46.1831 34.3632C46.587 30.9799 50.6904 29.5351 53.1362 31.9156L61.4612 40.0492C62.4247 40.9963 63.8004 41.4042 65.1224 41.1451L76.5476 38.8986C79.8849 38.243 82.532 41.7056 81.0164 44.7612L75.8631 55.187C75.2602 56.4 75.2938 57.8313 75.9546 59.0128L81.6193 69.1794C83.2702 72.1587 80.7941 75.7464 77.4179 75.2521Z" fill="#EC0187"/>
</g>
<path d="M120.101 108.505C121.376 114.2 117.611 119.96 111.828 121.169C106.359 122.311 100.866 119.442 99.8086 114.901C98.5122 109.294 102.786 101.716 107.976 100.421C113.242 99.1067 118.834 102.843 120.101 108.505Z" fill="#99DDE3"/>
<path d="M26.3595 124.266C27.4878 129.855 23.7093 135.558 18.2964 136.464C13.4234 137.279 8.92702 134.284 7.9416 129.577C6.81684 124.188 10.6749 119.023 16.67 117.91C21.8256 116.954 25.3493 119.266 26.3595 124.266Z" fill="#FABFE2"/>
<defs>
<filter id="filter0_d_5_212" x="0.100586" y="0.73996" width="172.043" height="173.939" filterUnits="userSpaceOnUse" color-interpolation-filters="sRGB">
<feFlood flood-opacity="0" result="BackgroundImageFix"/>
<feColorMatrix in="SourceAlpha" type="matrix" values="0 0 0 0 0 0 0 0 0 0 0 0 0 0 0 0 0 0 127 0" result="hardAlpha"/>
<feOffset dx="30" dy="30"/>
<feGaussianBlur stdDeviation="30"/>
<feComposite in2="hardAlpha" operator="out"/>
<feColorMatrix type="matrix" values="0 0 0 0 0.882353 0 0 0 0 0.784314 0 0 0 0 0.827451 0 0 0 0.4 0"/>
<feBlend mode="normal" in2="BackgroundImageFix" result="effect1_dropShadow_5_212"/>
<feBlend mode="normal" in="SourceGraphic" in2="effect1_dropShadow_5_212" result="shape"/>
</filter>
</defs>
</svg>

<svg width="173" height="175" fill="none" xmlns="http://www.w3.org/2000/svg"><g filter="url(#filter0_d_5_212)"><path d="M77.418 75.252l-11.514-1.69a4.117 4.117 0 00-3.61 1.272L54.38 83.36c-2.324 2.499-6.497 1.252-7.072-2.107l-1.94-11.475a4.112 4.112 0 00-2.334-3.038l-10.552-4.898c-3.094-1.433-3.195-5.791-.175-7.373l10.31-5.402a4.106 4.106 0 002.164-3.148l1.402-11.556c.404-3.383 4.507-4.828 6.953-2.447l8.325 8.133a4.105 4.105 0 003.661 1.096L76.548 38.9c3.337-.656 5.984 2.807 4.468 5.862l-5.153 10.426a4.099 4.099 0 00.092 3.826l5.664 10.166c1.651 2.98-.825 6.567-4.201 6.073z" fill="#EC0187"/></g><path d="M120.101 108.505c1.275 5.695-2.49 11.455-8.273 12.664-5.469 1.142-10.962-1.727-12.02-6.268-1.296-5.607 2.978-13.185 8.168-14.48 5.266-1.314 10.858 2.422 12.125 8.084z" fill="#99DDE3"/><path d="M26.36 124.266c1.128 5.589-2.65 11.292-8.064 12.198-4.873.815-9.369-2.18-10.354-6.887-1.125-5.389 2.733-10.554 8.728-11.667 5.156-.956 8.68 1.356 9.69 6.356z" fill="#FABFE2"/><defs><filter id="filter0_d_5_212" x=".101" y=".74" width="172.043" height="173.939" filterUnits="userSpaceOnUse" color-interpolation-filters="sRGB"><feFlood flood-opacity="0" result="BackgroundImageFix"/><feColorMatrix in="SourceAlpha" values="0 0 0 0 0 0 0 0 0 0 0 0 0 0 0 0 0 0 127 0" result="hardAlpha"/><feOffset dx="30" dy="30"/><feGaussianBlur stdDeviation="30"/><feComposite in2="hardAlpha" operator="out"/><feColorMatrix values="0 0 0 0 0.882353 0 0 0 0 0.784314 0 0 0 0 0.827451 0 0 0 0.4 0"/><feBlend in2="BackgroundImageFix" result="effect1_dropShadow_5_212"/><feBlend in="SourceGraphic" in2="effect1_dropShadow_5_212" result="shape"/></filter></defs></svg>
